public/footer/instagram.svg

<svg width="52" height="52" viewBox="0 0 52 52" fill="none" xmlns="http://www.w3.org/2000/svg">
<g clip-path="url(#clip0_2_4)">
<path fill-rule="evenodd" clip-rule="evenodd" d="M25.85 4.59C32.74 4.59 33.6 4.59 36.18 4.88C37.8494 4.85884 39.508 5.15054 41.07 5.74C43.2401 6.73539 44.987 8.46806 46 10.63C46.5894 12.1886 46.8811 13.8439 46.86 15.51C46.86 18.09 47.15 18.95 47.15 25.85C47.15 32.75 47.15 33.6 46.86 36.18C46.8812 37.8494 46.5895 39.508 46 41.07C44.9961 43.2479 43.2479 44.9961 41.07 46C39.508 46.5895 37.8494 46.8812 36.18 46.86C33.6 46.86 32.74 47.15 25.85 47.15C18.96 47.15 18.09 47.15 15.51 46.86C13.8439 46.8811 12.1886 46.5894 10.63 46C8.47656 44.9994 6.745 43.2714 5.74 41.12C5.15054 39.558 4.85884 37.8994 4.88 36.23C4.88 33.65 4.6 32.79 4.6 25.9C4.6 19.01 4.6 18.14 4.88 15.56C4.85891 13.8939 5.15062 12.2386 5.74 10.68C6.24424 9.61683 6.91993 8.64384 7.74 7.8C8.42045 6.80092 9.44617 6.08861 10.62 5.8C12.1786 5.21062 13.8339 4.91891 15.5 4.94C18.09 4.6 19 4.6 25.85 4.6V4.59ZM25.85 0C18.95 0 17.85 0 15.22 0.29C13.0604 0.280318 10.9177 0.670211 8.9 1.44C7.15659 2.0032 5.5797 2.98919 4.31 4.31C2.98919 5.5797 2.0032 7.15659 1.44 8.9C0.534017 10.8773 0.138612 13.0503 0.29 15.22C0 17.8 0 19 0 25.85C0 32.7 0 33.85 0.29 36.47C0.280318 38.6296 0.670211 40.7723 1.44 42.79C2.0032 44.5334 2.98919 46.1103 4.31 47.38C5.58172 48.7006 7.15768 49.6894 8.9 50.26C10.9196 51.022 13.0615 51.4083 15.22 51.4C17.81 51.69 18.95 51.69 25.85 51.69C32.75 51.69 33.85 51.69 36.47 51.4C38.6291 51.4049 40.771 51.0152 42.79 50.25C44.52 49.6527 46.0915 48.6698 47.3857 47.3757C48.6798 46.0815 49.6627 44.51 50.26 42.78C51.0227 40.7641 51.4091 38.6254 51.4 36.47C51.4 33.6 51.69 32.74 51.69 25.85C51.69 18.96 51.69 17.85 51.4 15.22C51.4083 13.0615 51.022 10.9196 50.26 8.9C49.6872 7.15582 48.6988 5.57712 47.38 4.3C46.1049 2.98588 44.5298 2.001 42.79 1.43C40.7704 0.668024 38.6285 0.281674 36.47 0.29C33.89 0 32.74 0 25.85 0ZM25.85 12.64C22.4038 12.5838 19.0763 13.8985 16.5991 16.2951C14.1219 18.6916 12.6979 21.9738 12.64 25.42C12.63 25.5632 12.63 25.7068 12.64 25.85C12.64 28.4627 13.4148 31.0167 14.8663 33.1891C16.3178 35.3615 18.3809 37.0546 20.7948 38.0544C23.2086 39.0543 25.8647 39.3159 28.4271 38.8062C30.9896 38.2965 33.3434 37.0383 35.1909 35.1909C37.0383 33.3434 38.2965 30.9896 38.8062 28.4271C39.3159 25.8647 39.0543 23.2086 38.0544 20.7948C37.0546 18.3809 35.3615 16.3178 33.1891 14.8663C31.0167 13.4148 28.4627 12.64 25.85 12.64V12.64ZM25.85 34.46C24.739 34.4812 23.6346 34.2833 22.6001 33.8777C21.5655 33.472 20.6211 32.8665 19.8206 32.0957C19.0201 31.3249 18.3793 30.404 17.9348 29.3856C17.4903 28.3671 17.2508 27.271 17.23 26.16V25.85C17.1898 23.6052 18.0426 21.4363 19.6008 19.82C21.159 18.2036 23.2953 17.2721 25.54 17.23H25.85C26.961 17.2101 28.0651 17.4093 29.0991 17.8162C30.1332 18.2231 31.0769 18.8297 31.8764 19.6014C32.676 20.3731 33.3157 21.2947 33.759 22.3137C34.2023 23.3327 34.4405 24.429 34.46 25.54V25.85C34.4812 26.9605 34.2832 28.0644 33.8775 29.0984C33.4717 30.1323 32.866 31.0761 32.0951 31.8758C31.3242 32.6755 30.4032 33.3154 29.3848 33.7588C28.3664 34.2022 27.2706 34.4405 26.16 34.46H25.85V34.46ZM39.63 8.9C39.005 8.9 38.3941 9.08533 37.8744 9.43256C37.3547 9.77978 36.9497 10.2733 36.7105 10.8507C36.4714 11.4281 36.4088 12.0635 36.5307 12.6765C36.6526 13.2895 36.9536 13.8525 37.3955 14.2945C37.8375 14.7364 38.4005 15.0374 39.0135 15.1593C39.6265 15.2812 40.2619 15.2186 40.8393 14.9795C41.4167 14.7403 41.9102 14.3353 42.2574 13.8156C42.6047 13.2959 42.79 12.685 42.79 12.06C42.7822 11.2243 42.4467 10.4251 41.8558 9.83419C41.2649 9.24326 40.4657 8.90782 39.63 8.9Z" fill="#303030"/>
</g>
<defs>
<clipPath id="clip0_2_4">
<rect width="51.69" height="51.69" fill="white"/>
</clipPath>
</defs>
</svg>

<svg xmlns="http://www.w3.org/2000/svg" viewBox="0 0 51.69 51.69"><defs><style>.a{fill:#fff;fill-rule:evenodd;}</style></defs><title>instagram</title><path class="a" d="M25.85,4.59c6.89,0,7.75,0,10.33.29a13.37,13.37,0,0,1,4.89.86A10.09,10.09,0,0,1,46,10.63a13.32,13.32,0,0,1,.86,4.88c0,2.58.29,3.44.29,10.34s0,7.75-.29,10.33A13.37,13.37,0,0,1,46,41.07,10.07,10.07,0,0,1,41.07,46a13.37,13.37,0,0,1-4.89.86c-2.58,0-3.44.29-10.33.29s-7.76,0-10.34-.29A13.32,13.32,0,0,1,10.63,46a10.09,10.09,0,0,1-4.89-4.88,13.37,13.37,0,0,1-.86-4.89c0-2.58-.28-3.44-.28-10.33s0-7.76.28-10.34a13.32,13.32,0,0,1,.86-4.88,10.73,10.73,0,0,1,2-2.88,4.9,4.9,0,0,1,2.88-2,13.32,13.32,0,0,1,4.88-.86C18.09,4.6,19,4.6,25.85,4.6m0-4.6c-6.9,0-8,0-10.63.29A17.51,17.51,0,0,0,8.9,1.44,11.1,11.1,0,0,0,4.31,4.31,11.1,11.1,0,0,0,1.44,8.9,13,13,0,0,0,.29,15.22C0,17.8,0,19,0,25.85s0,8,.29,10.62a17.51,17.51,0,0,0,1.15,6.32,11.1,11.1,0,0,0,2.87,4.59A11.22,11.22,0,0,0,8.9,50.26a17.71,17.71,0,0,0,6.32,1.14c2.59.29,3.73.29,10.63.29s8,0,10.62-.29a17.72,17.72,0,0,0,6.32-1.15,12.07,12.07,0,0,0,7.47-7.47,17.62,17.62,0,0,0,1.14-6.31c0-2.87.29-3.73.29-10.62s0-8-.29-10.63A17.71,17.71,0,0,0,50.26,8.9a11.32,11.32,0,0,0-2.88-4.6,11.31,11.31,0,0,0-4.59-2.87A17.71,17.71,0,0,0,36.47.29C33.89,0,32.74,0,25.85,0m0,12.64A13,13,0,0,0,12.64,25.42a3.08,3.08,0,0,0,0,.43A13.21,13.21,0,1,0,25.85,12.64h0m0,21.82a8.46,8.46,0,0,1-8.62-8.3v-.31a8.47,8.47,0,0,1,8.31-8.62h.31a8.46,8.46,0,0,1,8.61,8.31v.31a8.45,8.45,0,0,1-8.3,8.61h-.31M39.63,8.9a3.16,3.16,0,1,0,3.16,3.16A3.19,3.19,0,0,0,39.63,8.9"/></svg>
